assets/images/icons/src/check-circle-o.svg

<?xml version="1.0" encoding="utf-8"?>
<!-- Generated by IcoMoon.io -->
<!DOCTYPE svg PUBLIC "-//W3C//DTD SVG 1.1//EN" "http://www.w3.org/Graphics/SVG/1.1/DTD/svg11.dtd">
<svg version="1.1" xmlns="http://www.w3.org/2000/svg" xmlns:xlink="http://www.w3.org/1999/xlink" width="12" height="14" viewBox="0 0 12 14">
<path fill="#444444" d="M9.148 6.352l-3.297 3.297q-0.148 0.148-0.352 0.148t-0.352-0.148l-2.297-2.297q-0.148-0.148-0.148-0.352t0.148-0.352l0.797-0.797q0.148-0.148 0.352-0.148t0.352 0.148l1.148 1.148 2.148-2.148q0.148-0.148 0.352-0.148t0.352 0.148l0.797 0.797q0.148 0.148 0.148 0.352t-0.148 0.352zM10.25 7q0-1.156-0.57-2.133t-1.547-1.547-2.133-0.57-2.133 0.57-1.547 1.547-0.57 2.133 0.57 2.133 1.547 1.547 2.133 0.57 2.133-0.57 1.547-1.547 0.57-2.133zM12 7q0 1.633-0.805 3.012t-2.184 2.184-3.012 0.805-3.012-0.805-2.184-2.184-0.805-3.012 0.805-3.012 2.184-2.184 3.012-0.805 3.012 0.805 2.184 2.184 0.805 3.012z"></path>
</svg>

<svg xmlns="http://www.w3.org/2000/svg" width="12" height="14" viewBox="0 0 12 14"><path fill="#444" d="M9.148 6.352L5.851 9.649q-.148.148-.352.148t-.352-.148L2.85 7.352Q2.702 7.204 2.702 7t.148-.352l.797-.797q.148-.148.352-.148t.352.148l1.148 1.148 2.148-2.148q.148-.148.352-.148t.352.148l.797.797q.148.148.148.352t-.148.352zM10.25 7q0-1.156-.57-2.133T8.133 3.32 6 2.75t-2.133.57T2.32 4.867 1.75 7t.57 2.133 1.547 1.547T6 11.25t2.133-.57T9.68 9.133 10.25 7zM12 7q0 1.633-.805 3.012t-2.184 2.184-3.012.805-3.012-.805-2.184-2.184T-.002 7t.805-3.012 2.184-2.184T5.999.999t3.012.805 2.184 2.184T12 7z"/></svg>
